SharedPackages/Infrastructure/DesignResourcesKitIcons/Sources/DesignResourcesKitIcons/DesignSystemImages.xcassets/Color/24px/Identity-Theft-Restoration-Color-24.imageset/Identity-Theft-Restoration-Color-24.svg

<svg width="24" height="24" viewBox="0 0 24 24" fill="none" xmlns="http://www.w3.org/2000/svg">
<path d="M18 4.25C19.5188 4.25 20.75 5.48122 20.75 7V14.7715C20.3626 14.711 19.8873 14.6478 19.4199 14.5898C19.3893 14.3369 19.3576 14.0862 19.3262 13.8525C19.2896 13.5811 19.2523 13.3235 19.2158 13.1084C19.1844 12.923 19.1407 12.682 19.0791 12.4971L19.0137 12.3037C18.9322 12.0701 18.7968 11.7347 18.5713 11.457C18.1637 10.9556 17.5977 10.75 17 10.75C16.6256 10.75 15.9892 10.793 15.4912 11.3184C15.1503 11.6781 15.0065 12.1529 14.9258 12.4658L14.8945 12.5898C14.803 12.9562 14.6884 13.785 14.5889 14.5889C13.8567 14.6795 13.1036 14.7823 12.6982 14.8691L12.5898 14.8945C12.2915 14.9691 11.7297 15.1014 11.3184 15.4912C10.793 15.9892 10.75 16.6256 10.75 17C10.75 17.2936 10.777 17.7481 11.042 18.1709C10.472 18.5284 10.0424 19.0882 9.85449 19.75H6C4.48122 19.75 3.25 18.5188 3.25 17V7C3.25 5.48122 4.48122 4.25 6 4.25H18Z" fill="#FFD885"/>
<path fill-rule="evenodd" clip-rule="evenodd" d="M17 3C19.7614 3 22 5.23858 22 8V15.0723C21.7723 14.9821 21.5585 14.9316 21.4102 14.8945L21.3018 14.8691C21.1568 14.8381 20.9672 14.8054 20.75 14.7715V10.5H3.25V16C3.25 18.0711 4.92893 19.75 7 19.75H9.85449C9.78682 19.9884 9.75 20.2398 9.75 20.5C9.75 20.6709 9.76802 20.8377 9.79785 21H7C4.23858 21 2 18.7614 2 16V8C2 5.23858 4.23858 3 7 3H17ZM7 4.25C5.09851 4.25 3.52869 5.66539 3.28418 7.5H20.7158C20.4713 5.66539 18.9015 4.25 17 4.25H7Z" fill="#B66A1F"/>
<path d="M12.8929 16.1071C12.1786 16.2857 12 16.4083 12 17C12 17.5917 12.1786 17.7143 12.8929 17.8929C13.3152 17.9984 14.6737 18.1664 15.7139 18.2861C15.8336 19.3263 16.0016 20.6848 16.1071 21.1071C16.2857 21.8214 16.4083 22 17 22C17.5917 22 17.7143 21.8214 17.8929 21.1071C17.9982 20.6856 18.1658 19.3315 18.2854 18.2921C19.3662 18.1721 20.7851 18.0002 21.1071 17.8929C21.6429 17.7143 22 17.5917 22 17C22 16.4083 21.8214 16.2857 21.1071 16.1071C20.6857 16.0018 19.3315 15.8342 18.2921 15.7146C18.1721 14.6338 18.0002 13.2149 17.8929 12.8929C17.7143 12.3571 17.5917 12 17 12C16.4083 12 16.2857 12.1786 16.1071 12.8929C16.0016 13.3152 15.8336 14.6737 15.7139 15.7139C14.6737 15.8336 13.3152 16.0016 12.8929 16.1071Z" fill="#4397E0"/>
<circle cx="12.5" cy="20.5" r="1.5" fill="#75B6EB"/>
</svg>

<svg fill="none" viewBox="0 0 24 24" xmlns="http://www.w3.org/2000/svg">
  <path fill="#FC3" d="M18 4.25A2.75 2.75 0 0 1 20.75 7v7.771c-.387-.06-.863-.123-1.33-.181-.03-.253-.062-.504-.094-.738a23.036 23.036 0 0 0-.11-.744 4.427 4.427 0 0 0-.137-.61l-.065-.194c-.082-.234-.217-.57-.443-.847-.407-.501-.973-.707-1.571-.707-.374 0-1.01.043-1.509.568-.34.36-.484.835-.565 1.148l-.031.124c-.092.366-.207 1.195-.306 1.999-.732.09-1.485.193-1.89.28l-.11.026c-.298.074-.86.206-1.27.596-.526.498-.569 1.135-.569 1.509 0 .294.027.748.292 1.17-.57.358-1 .918-1.188 1.58H6A2.75 2.75 0 0 1 3.25 17V7A2.75 2.75 0 0 1 6 4.25h12Z"/>
  <path fill="url(#Identity-Theft-Restoration-Color-24_svg__a)" d="M17.257 3.007A5 5 0 0 1 22 8v5.895c0 .565-.583.984-1.14.894a20.855 20.855 0 0 0-.11-.018V10.5H3.25V16A3.75 3.75 0 0 0 7 19.75h2.854a2.61 2.61 0 0 0-.065.294c-.08.493-.452.956-.952.956H7a5 5 0 0 1-5-5V8a5 5 0 0 1 5-5h10l.257.007ZM7 4.25A3.75 3.75 0 0 0 3.284 7.5h17.432a3.75 3.75 0 0 0-3.523-3.245L17 4.25H7Z"/>
  <path fill="#7295F6" d="M12.893 16.107c-.714.179-.893.301-.893.893 0 .592.179.714.893.893.422.105 1.78.273 2.82.393.12 1.04.289 2.399.394 2.821.179.714.301.893.893.893.592 0 .714-.179.893-.893.105-.421.273-1.776.392-2.815 1.081-.12 2.5-.292 2.822-.4.536-.178.893-.3.893-.892 0-.592-.179-.714-.893-.893-.421-.105-1.776-.273-2.815-.392-.12-1.081-.292-2.5-.4-2.822-.178-.536-.3-.893-.892-.893-.592 0-.714.179-.893.893-.105.422-.273 1.78-.393 2.82-1.04.12-2.399.289-2.821.394Z"/>
  <path fill="#ADC2FC" d="M14 20.5a1.5 1.5 0 1 1-3 0 1.5 1.5 0 0 1 3 0Z"/>
  <defs>
    <linearGradient id="Identity-Theft-Restoration-Color-24_svg__a" x1="12" x2="12" y1="2.875" y2="21.25" gradientUnits="userSpaceOnUse">
      <stop stop-color="#E2A412"/>
      <stop offset="1" stop-color="#C18010"/>
    </linearGradient>
  </defs>
</svg>
